; generated by Slic3r 0.9.9 on 2015-05-21 at 10:16:11

; layer_height = .2
; perimeters = 3
; top_solid_layers = 3
; bottom_solid_layers = 5
; fill_density = .2
; perimeter_speed = 60
; infill_speed = 100
; travel_speed = 150
; nozzle_diameter = 0.4
; filament_diameter = 1.75
; extrusion_multiplier = 1
; perimeters extrusion width = 0.67mm
; infill extrusion width = 0.67mm
; solid infill extrusion width = 0.67mm
; top infill extrusion width = 0.67mm
; support material extrusion width = 0.67mm
; first layer extrusion width = 0.40mm

G21 ; set units to millimeters
M107
M104 S190 ; set temperature
G28 X0 Y0  
G29
M109 S190 ; wait for temperature to be reached
G90 ; use absolute coordinates
G92 E0
M82 ; use absolute distances for extrusion
G1 F1800.000 E-1.00000
G92 E0
G1 Z0.200 F9000.000
G1 X35.510 Y34.522
G1 F1800.000 E1.00000
G1 X35.890 Y34.162 F2700.000 E1.01741
G1 X36.300 Y33.842 E1.03471
G1 X38.840 Y31.992 E1.13922
G1 X39.510 Y31.562 E1.16570
G1 X39.980 Y31.332 E1.18310
G1 X42.850 Y30.062 E1.28749
G1 X43.330 Y29.872 E1.30466
G1 X44.080 Y29.662 E1.33056
G1 X47.150 Y29.012 E1.43494
G1 X47.660 Y28.932 E1.45211
G1 X47.910 Y28.902 E1.46048
G1 X48.430 Y28.882 E1.47779
G1 X51.560 Y28.882 E1.58189
G1 X52.080 Y28.902 E1.59920
G1 X52.840 Y29.012 E1.62474
G1 X56.170 Y29.722 E1.73799
G1 X56.660 Y29.872 E1.75503
G1 X57.140 Y30.062 E1.77220
G1 X60.010 Y31.332 E1.87659
G1 X60.250 Y31.442 E1.88537
G1 X60.720 Y31.702 E1.90323
G1 X61.160 Y32.002 E1.92095
G1 X63.890 Y34.002 E2.03350
G1 X64.280 Y34.332 E2.05050
G1 X64.640 Y34.702 E2.06767
G1 X66.740 Y37.032 E2.17199
G1 X67.220 Y37.642 E2.19781
G1 X67.490 Y38.072 E2.21470
G1 X69.310 Y41.242 E2.33627
G1 X69.600 Y41.972 E2.36240
G1 X70.570 Y44.952 E2.46663
G1 X70.710 Y45.462 E2.48422
G1 X70.840 Y46.242 E2.51052
G1 X71.160 Y49.352 E2.61451
G1 X71.190 Y50.102 E2.63947
G1 X71.160 Y50.612 E2.65647
G1 X70.840 Y53.742 E2.76111
G1 X70.810 Y54.002 E2.76982
G1 X70.710 Y54.522 E2.78743
G1 X70.570 Y55.032 E2.80502
G1 X69.600 Y58.012 E2.90926
G1 X69.310 Y58.732 E2.93507
G1 X69.070 Y59.192 E2.95233
G1 X67.500 Y61.912 E3.05679
G1 X67.070 Y62.562 E3.08271
G1 X66.740 Y62.962 E3.09995
G1 X64.640 Y65.292 E3.20428
G1 X64.270 Y65.662 E3.22168
G1 X63.680 Y66.152 E3.24719
G1 X61.150 Y67.992 E3.35124
G1 X60.490 Y68.412 E3.37726
G1 X60.030 Y68.642 E3.39437
G1 X57.160 Y69.922 E3.49889
G1 X56.670 Y70.122 E3.51649
G1 X55.910 Y70.332 E3.54271
G1 X52.840 Y70.982 E3.64709
G1 X52.330 Y71.062 E3.66426
G1 X52.080 Y71.092 E3.67263
G1 X51.560 Y71.112 E3.68994
G1 X48.430 Y71.112 E3.79404
G1 X47.910 Y71.092 E3.81135
G1 X47.150 Y70.982 E3.83689
G1 X44.080 Y70.332 E3.94127
G1 X43.820 Y70.272 E3.95014
G1 X43.320 Y70.112 E3.96760
G1 X42.830 Y69.922 E3.98508
G1 X39.970 Y68.642 E4.08930
G1 X39.290 Y68.282 E4.11489
G1 X38.860 Y68.002 E4.13195
G1 X36.310 Y66.152 E4.23674
G1 X35.900 Y65.832 E4.25404
G1 X35.340 Y65.282 E4.28014
G1 X33.250 Y62.962 E4.38400
G1 X32.770 Y62.352 E4.40982
G1 X32.490 Y61.912 E4.42716
G1 X30.920 Y59.192 E4.53162
G1 X30.680 Y58.732 E4.54888
G1 X30.390 Y58.012 E4.57469
G1 X29.420 Y55.032 E4.67893
G1 X29.280 Y54.522 E4.69652
G1 X29.180 Y54.002 E4.71413
G1 X29.150 Y53.742 E4.72283
G1 X28.830 Y50.622 E4.82715
G1 X28.800 Y49.862 E4.85245
G1 X28.830 Y49.362 E4.86911
G1 X29.150 Y46.242 E4.97342
G1 X29.180 Y45.982 E4.98213
G1 X29.280 Y45.462 E4.99974
G1 X29.420 Y44.952 E5.01733
G1 X30.390 Y41.972 E5.12156
G1 X30.680 Y41.242 E5.14769
G1 X32.500 Y38.072 E5.26927
G1 X32.920 Y37.432 E5.29473
G1 X33.240 Y37.042 E5.31151
G1 X35.469 Y34.566 E5.42232
G1 X35.800 Y34.802 F9000.000
G1 X36.150 Y34.462 F2700.000 E5.43855
G1 X36.540 Y34.162 E5.45491
G1 X39.080 Y32.312 E5.55943
G1 X39.700 Y31.912 E5.58397
G1 X43.010 Y30.432 E5.70456
G1 X43.460 Y30.252 E5.72068
G1 X43.920 Y30.112 E5.73667
G1 X47.470 Y29.362 E5.85735
G1 X47.950 Y29.302 E5.87344
G1 X48.430 Y29.282 E5.88942
G1 X51.560 Y29.282 E5.99353
G1 X52.040 Y29.302 E6.00951
G1 X52.520 Y29.362 E6.02559
G1 X56.070 Y30.112 E6.14627
G1 X56.750 Y30.332 E6.17005
G1 X59.850 Y31.702 E6.28277
G1 X60.510 Y32.042 E6.30746
G1 X60.920 Y32.322 E6.32398
G1 X63.640 Y34.312 E6.43607
G1 X64.170 Y34.792 E6.45986
G1 X64.340 Y34.972 E6.46809
G1 X66.600 Y37.482 E6.58043
G1 X66.890 Y37.862 E6.59633
G1 X67.150 Y38.272 E6.61247
G1 X68.720 Y40.982 E6.71664
G1 X68.950 Y41.412 E6.73286
G1 X69.220 Y42.092 E6.75720
G1 X70.190 Y45.072 E6.86143
G1 X70.320 Y45.552 E6.87797
G1 X70.440 Y46.282 E6.90258
G1 X70.760 Y49.392 E7.00656
G1 X70.790 Y50.102 E7.03020
G1 X70.760 Y50.572 E7.04586
G1 X70.440 Y53.702 E7.15051
G1 X70.320 Y54.432 E7.17511
G1 X70.190 Y54.912 E7.19165
G1 X69.220 Y57.892 E7.29589
G1 X69.050 Y58.342 E7.31189
G1 X68.840 Y58.782 E7.32810
G1 X67.030 Y61.922 E7.44865
G1 X66.750 Y62.322 E7.46489
G1 X66.440 Y62.692 E7.48094
G1 X64.340 Y65.022 E7.58527
G1 X64.000 Y65.372 E7.60150
G1 X63.440 Y65.832 E7.62560
G1 X60.910 Y67.672 E7.72965
G1 X60.510 Y67.942 E7.74570
G1 X59.860 Y68.282 E7.77010
G1 X56.990 Y69.562 E7.87462
G1 X56.540 Y69.742 E7.89074
G1 X56.070 Y69.882 E7.90705
G1 X52.760 Y70.582 E8.01958
G1 X52.520 Y70.632 E8.02773
G1 X52.040 Y70.692 E8.04382
G1 X51.560 Y70.712 E8.05980
G1 X48.430 Y70.712 E8.16390
G1 X47.950 Y70.692 E8.17988
G1 X47.470 Y70.632 E8.19597
G1 X43.920 Y69.882 E8.31665
G1 X43.450 Y69.742 E8.33296
G1 X42.990 Y69.552 E8.34952
G1 X39.910 Y68.172 E8.46177
G1 X39.490 Y67.942 E8.47770
G1 X39.090 Y67.672 E8.49375
G1 X36.350 Y65.682 E8.60638
G1 X35.980 Y65.362 E8.62265
G1 X35.640 Y65.012 E8.63888
G1 X33.550 Y62.692 E8.74274
G1 X33.240 Y62.322 E8.75879
G1 X32.960 Y61.922 E8.77503
G1 X31.150 Y58.782 E8.89558
G1 X30.940 Y58.342 E8.91179
G1 X30.770 Y57.892 E8.92779
G1 X29.800 Y54.912 E9.03203
G1 X29.620 Y54.192 E9.05671
G1 X29.550 Y53.702 E9.07317
G1 X29.230 Y50.582 E9.17749
G1 X29.200 Y49.872 E9.20112
G1 X29.230 Y49.402 E9.21679
G1 X29.550 Y46.282 E9.32110
G1 X29.670 Y45.552 E9.34571
G1 X29.800 Y45.072 E9.36225
G1 X30.770 Y42.092 E9.46648
G1 X31.040 Y41.412 E9.49082
G1 X31.270 Y40.982 E9.50704
G1 X32.840 Y38.272 E9.61121
G1 X33.100 Y37.872 E9.62707
G1 X33.540 Y37.312 E9.65076
G1 X35.759 Y34.846 E9.76110
G1 X35.930 Y35.242 F9000.000
G1 X36.250 Y34.922 F2700.000 E9.77615
G1 X36.590 Y34.622 E9.79124
G1 X39.500 Y32.502 E9.91098
G1 X39.690 Y32.382 E9.91846
G1 X40.300 Y32.062 E9.94137
G1 X43.170 Y30.792 E10.04575
G1 X43.810 Y30.562 E10.06837
G1 X44.240 Y30.452 E10.08314
G1 X47.310 Y29.802 E10.18751
G1 X47.760 Y29.722 E10.20271
G1 X48.200 Y29.682 E10.21740
G1 X51.790 Y29.682 E10.33681
G1 X52.230 Y29.722 E10.35150
G1 X52.680 Y29.802 E10.36670
G1 X55.750 Y30.452 E10.47108
G1 X56.400 Y30.632 E10.49351
G1 X56.820 Y30.792 E10.50846
G1 X59.690 Y32.062 E10.61284
G1 X60.300 Y32.382 E10.63575
G1 X60.690 Y32.642 E10.65134
G1 X63.220 Y34.492 E10.75559
G1 X63.570 Y34.772 E10.77050
G1 X64.040 Y35.232 E10.79237
G1 X66.140 Y37.562 E10.89670
G1 X66.560 Y38.092 E10.91919
G1 X66.690 Y38.282 E10.92685
G1 X68.370 Y41.182 E11.03832
G1 X68.680 Y41.792 E11.06107
G1 X69.800 Y45.202 E11.18045
G1 X69.980 Y45.862 E11.20321
G1 X70.360 Y49.432 E11.32262
G1 X70.390 Y50.092 E11.34459
G1 X70.360 Y50.532 E11.35926
G1 X69.980 Y54.112 E11.47900
G1 X69.800 Y54.782 E11.50207
G1 X68.760 Y57.972 E11.61367
G1 X68.590 Y58.392 E11.62874
G1 X68.380 Y58.792 E11.64377
G1 X66.810 Y61.512 E11.74822
G1 X66.430 Y62.082 E11.77101
G1 X66.140 Y62.432 E11.78612
G1 X64.040 Y64.762 E11.89045
G1 X63.730 Y65.082 E11.90527
G1 X63.210 Y65.512 E11.92771
G1 X60.680 Y67.352 E12.03176
G1 X60.300 Y67.602 E12.04689
G1 X59.900 Y67.822 E12.06207
G1 X56.830 Y69.192 E12.17389
G1 X56.410 Y69.362 E12.18896
G1 X55.750 Y69.542 E12.21171
G1 X52.680 Y70.192 E12.31608
G1 X52.230 Y70.272 E12.33129
G1 X51.790 Y70.312 E12.34598
G1 X48.200 Y70.312 E12.46538
G1 X47.760 Y70.272 E12.48008
G1 X47.310 Y70.192 E12.49528
G1 X44.240 Y69.542 E12.59965
G1 X43.580 Y69.362 E12.62241
G1 X43.150 Y69.192 E12.63779
G1 X40.290 Y67.912 E12.74200
G1 X39.700 Y67.602 E12.76417
G1 X39.510 Y67.482 E12.77164
G1 X36.780 Y65.502 E12.88381
G1 X36.420 Y65.222 E12.89898
G1 X36.090 Y64.912 E12.91404
G1 X33.560 Y62.082 E13.04030
G1 X33.180 Y61.512 E13.06308
G1 X31.610 Y58.792 E13.16754
G1 X31.400 Y58.392 E13.18256
G1 X31.230 Y57.972 E13.19763
G1 X30.190 Y54.782 E13.30923
G1 X30.010 Y54.112 E13.33230
G1 X29.630 Y50.542 E13.45171
G1 X29.600 Y50.102 E13.46638
G1 X29.630 Y49.442 E13.48836
G1 X30.010 Y45.872 E13.60777
G1 X30.190 Y45.202 E13.63084
G1 X31.310 Y41.792 E13.75022
G1 X31.620 Y41.182 E13.77298
G1 X33.300 Y38.282 E13.88445
G1 X33.840 Y37.572 E13.91412
G1 X35.890 Y35.287 E14.01622
G1 F1800.000 E13.01622
G92 E0
G1 X40.636 Y39.600 F9000.000
G1 F1800.000 E1.00000
G1 X43.003 Y37.880 F2700.000 E1.09731
G1 X45.675 Y36.690 E1.19461
G1 X48.537 Y36.082 E1.29192
G1 X51.463 Y36.082 E1.38923
G1 X54.325 Y36.690 E1.48654
G1 X56.997 Y37.880 E1.58384
G1 X59.364 Y39.600 E1.68115
G1 X61.322 Y41.774 E1.77846
G1 X62.785 Y44.308 E1.87577
G1 X63.689 Y47.090 E1.97307
G1 X63.994 Y50.000 E2.07038
G1 X63.689 Y52.910 E2.16769
G1 X62.785 Y55.692 E2.26500
G1 X61.322 Y58.226 E2.36230
G1 X59.364 Y60.400 E2.45961
G1 X56.997 Y62.120 E2.55692
G1 X54.325 Y63.310 E2.65423
G1 X51.463 Y63.918 E2.75153
G1 X48.537 Y63.918 E2.84884
G1 X45.675 Y63.310 E2.94615
G1 X43.003 Y62.120 E3.04345
G1 X40.636 Y60.400 E3.14076
G1 X38.678 Y58.226 E3.23807
G1 X37.215 Y55.692 E3.33538
G1 X36.311 Y52.910 E3.43268
G1 X36.006 Y50.000 E3.52999
G1 X36.311 Y47.090 E3.62730
G1 X37.215 Y44.308 E3.72461
G1 X38.678 Y41.774 E3.82191
G1 X40.596 Y39.645 E3.91723
G1 X40.367 Y39.301 F9000.000
G1 X42.802 Y37.532 F2700.000 E4.01733
G1 X45.551 Y36.308 E4.11743
G1 X48.495 Y35.682 E4.21754
G1 X51.505 Y35.682 E4.31764
G1 X54.449 Y36.308 E4.41775
G1 X57.198 Y37.532 E4.51785
G1 X59.633 Y39.301 E4.61795
G1 X61.647 Y41.538 E4.71806
G1 X63.152 Y44.144 E4.81816
G1 X64.082 Y47.007 E4.91827
G1 X64.397 Y50.000 E5.01837
G1 X64.082 Y52.993 E5.11847
G1 X63.152 Y55.856 E5.21858
G1 X61.647 Y58.462 E5.31868
G1 X59.633 Y60.699 E5.41879
G1 X57.198 Y62.468 E5.51889
G1 X54.449 Y63.692 E5.61899
G1 X51.505 Y64.318 E5.71910
G1 X48.495 Y64.318 E5.81920
G1 X45.551 Y63.692 E5.91931
G1 X42.802 Y62.468 E6.01941
G1 X40.367 Y60.699 E6.11951
G1 X38.353 Y58.462 E6.21962
G1 X36.848 Y55.856 E6.31972
G1 X35.918 Y52.993 E6.41983
G1 X35.603 Y50.000 E6.51993
G1 X35.918 Y47.007 E6.62004
G1 X36.848 Y44.144 E6.72014
G1 X38.353 Y41.538 E6.82024
G1 X40.327 Y39.346 E6.91835
G1 X40.098 Y39.002 F9000.000
G1 X42.601 Y37.184 F2700.000 E7.02125
G1 X45.427 Y35.925 E7.12415
G1 X48.453 Y35.282 E7.22705
G1 X51.547 Y35.282 E7.32995
G1 X54.573 Y35.925 E7.43285
G1 X57.399 Y37.184 E7.53575
G1 X59.902 Y39.002 E7.63866
G1 X61.973 Y41.301 E7.74156
G1 X63.519 Y43.981 E7.84446
G1 X64.475 Y46.923 E7.94736
G1 X64.799 Y50.000 E8.05026
G1 X64.475 Y53.077 E8.15316
G1 X63.519 Y56.019 E8.25606
G1 X61.973 Y58.699 E8.35896
G1 X59.902 Y60.998 E8.46186
G1 X57.399 Y62.816 E8.56476
G1 X54.573 Y64.075 E8.66766
G1 X51.547 Y64.718 E8.77056
G1 X48.453 Y64.718 E8.87346
G1 X45.427 Y64.075 E8.97636
G1 X42.601 Y62.816 E9.07926
G1 X40.098 Y60.998 E9.18217
G1 X38.027 Y58.699 E9.28507
G1 X36.481 Y56.019 E9.38797
G1 X35.525 Y53.077 E9.49087
G1 X35.201 Y50.000 E9.59377
G1 X35.525 Y46.923 E9.69667
G1 X36.481 Y43.981 E9.79957
G1 X38.027 Y41.301 E9.90247
G1 X40.057 Y39.047 E10.00337
G1 X40.473 Y39.139 F9000.000
G1 F1800.000 E9.00337
G92 E0
G1 X57.087 Y38.304 F9000.000
G1 F1800.000 E1.00000
G1 X61.574 Y42.791 F4500.000 E1.21235
G1 X62.352 Y44.138 E1.26439
G1 X55.942 Y37.728 E1.56775
G1 X54.916 Y37.271 E1.60533
G1 X62.734 Y45.089 E1.97533
G1 X63.007 Y45.932 E2.00500
G1 X53.992 Y36.916 E2.43170
G1 X53.269 Y36.762 E2.45643
G1 X63.281 Y46.775 E2.93030
G1 X63.441 Y47.503 E2.95525
G1 X52.546 Y36.609 E3.47087
G1 X51.823 Y36.455 E3.49560
G1 X63.507 Y48.139 E4.04859
G1 X63.574 Y48.775 E4.07000
G1 X51.171 Y36.372 E4.65702
G1 X50.602 Y36.372 E4.67607
G1 X63.641 Y49.411 E5.29320
G1 X63.699 Y50.038 E5.31427
G1 X50.033 Y36.372 E5.96108
G1 X49.463 Y36.372 E5.98013
G1 X63.645 Y50.554 E6.65131
G1 X63.591 Y51.069 E6.66864
G1 X48.894 Y36.372 E7.36420
G1 X48.368 Y36.415 E7.38188
G1 X63.537 Y51.584 E8.09980
G1 X63.482 Y52.099 E8.11713
G1 X47.898 Y36.514 E8.85471
G1 X47.429 Y36.614 E8.87077
G1 X63.428 Y52.614 E9.62799
G1 X63.328 Y53.082 E9.64403
G1 X46.959 Y36.714 E10.41872
G1 X46.490 Y36.814 E10.43478
G1 X63.188 Y53.512 E11.22508
G1 X63.049 Y53.942 E11.24019
G1 X46.020 Y36.914 E12.04610
G1 X45.586 Y37.048 E12.06133
G1 X62.909 Y54.371 E12.88121
G1 X62.769 Y54.801 E12.89633
G1 X45.192 Y37.223 E13.72825
G1 X44.798 Y37.398 E13.74268
G1 X62.630 Y55.230 E14.58663
G1 X62.476 Y55.646 E14.60146
G1 X44.404 Y37.574 E15.45679
G1 X44.010 Y37.749 E15.47121
G1 X62.268 Y56.007 E16.33532
G1 X62.060 Y56.368 E16.34927
G1 X43.616 Y37.925 E17.22215
G1 X43.223 Y38.100 E17.23658
G1 X61.851 Y56.729 E18.11825
G1 X61.643 Y57.090 E18.13219
G1 X42.881 Y38.327 E19.02018
G1 X42.551 Y38.567 E19.03381
G1 X61.435 Y57.450 E19.92754
G1 X61.226 Y57.811 E19.94148
G1 X42.221 Y38.806 E20.84095
G1 X41.892 Y39.046 E20.85459
G1 X60.998 Y58.152 E21.75885
G1 X60.728 Y58.452 E21.77234
G1 X41.562 Y39.285 E22.67944
G1 X41.232 Y39.525 E22.69308
G1 X60.459 Y58.751 E23.60302
G1 X60.189 Y59.051 E23.61651
G1 X40.903 Y39.764 E24.52929
G1 X40.620 Y40.051 E24.54276
G1 X59.919 Y59.350 E25.45616
G1 X59.650 Y59.650 E25.46965
G1 X40.350 Y40.350 E26.38305
G1 X40.081 Y40.650 E26.39654
G1 X59.380 Y59.949 E27.30994
G1 X59.097 Y60.236 E27.32341
G1 X39.811 Y40.949 E28.23619
G1 X39.541 Y41.249 E28.24968
G1 X58.768 Y60.475 E29.15962
G1 X58.438 Y60.715 E29.17325
G1 X39.272 Y41.548 E30.08036
G1 X39.002 Y41.848 E30.09384
G1 X58.108 Y60.954 E30.99811
G1 X57.779 Y61.194 E31.01174
G1 X38.774 Y42.189 E31.91121
G1 X38.565 Y42.550 E31.92516
G1 X57.449 Y61.433 E32.81888
G1 X57.119 Y61.673 E32.83252
G1 X38.357 Y42.910 E33.72050
G1 X38.149 Y43.271 E33.73445
G1 X56.777 Y61.900 E34.61611
G1 X56.384 Y62.075 E34.63054
G1 X37.940 Y43.632 E35.50343
G1 X37.732 Y43.993 E35.51737
G1 X55.990 Y62.251 E36.38148
G1 X55.596 Y62.426 E36.39591
G1 X37.524 Y44.354 E37.25124
G1 X37.370 Y44.770 E37.26607
G1 X55.202 Y62.602 E38.11002
G1 X54.808 Y62.777 E38.12445
G1 X37.231 Y45.199 E38.95637
G1 X37.091 Y45.629 E38.97148
G1 X54.414 Y62.952 E39.79136
G1 X53.979 Y63.086 E39.80660
G1 X36.951 Y46.058 E40.61250
G1 X36.812 Y46.488 E40.62762
G1 X53.510 Y63.186 E41.41792
G1 X53.041 Y63.286 E41.43398
G1 X36.672 Y46.918 E42.20866
G1 X36.572 Y47.386 E42.22470
G1 X52.571 Y63.386 E42.98193
G1 X52.102 Y63.486 E42.99799
G1 X36.518 Y47.901 E43.73557
G1 X36.463 Y48.416 E43.75290
G1 X51.632 Y63.585 E44.47082
G1 X51.106 Y63.628 E44.48850
G1 X36.409 Y48.931 E45.18406
G1 X36.355 Y49.446 E45.20139
G1 X50.537 Y63.628 E45.87257
G1 X49.967 Y63.628 E45.89162
G1 X36.301 Y49.962 E46.53842
G1 X36.359 Y50.589 E46.55950
G1 X49.398 Y63.628 E47.17663
G1 X48.829 Y63.628 E47.19567
G1 X36.426 Y51.225 E47.78270
G1 X36.493 Y51.861 E47.80410
G1 X48.177 Y63.545 E48.35710
G1 X47.454 Y63.391 E48.38183
G1 X36.559 Y52.497 E48.89745
G1 X36.719 Y53.225 E48.92240
G1 X46.731 Y63.238 E49.39627
G1 X46.008 Y63.084 E49.42100
G1 X36.993 Y54.068 E49.84770
G1 X37.266 Y54.911 E49.87737
G1 X45.084 Y62.729 E50.24736
G1 X44.058 Y62.272 E50.28494
G1 X37.648 Y55.862 E50.58831
G1 X38.426 Y57.209 E50.64035
G1 X42.913 Y61.696 E50.85270
G1 F1800.000 E49.85270
G92 E0
G1 X40.831 Y60.184 F9000.000
G1 F1800.000 E1.00000
G1 X40.830 Y60.182 F4500.000 E1.00009
G1 F1800.000 E0.00009
G92 E0
G1 X59.170 Y39.818 F9000.000
G1 F1800.000 E1.00000
G1 X59.169 Y39.816 F4500.000 E1.00009
M106 S255
G1 F1800.000 E0.00009
G92 E0
G1 Z0.400 F9000.000
G1 X58.980 Y40.027
G1 F1800.000 E1.00000
